X: 16586
T: Hand Me Down The Tackle
R: reel
M: 4/4
K: Dmajor
c|:dD D/D/D FDFA|dfaf gfec|dD D/D/D FDFA|BGEF GABc
dD D/D/D FDFA|dfaf gfeg|fdec dA ~A2|BGEF GABc:|
|:d2 fd Adfd|d2 fd ecAc|d2 fd Adfd|BGEF GABc|
[1 d2 fd Adfd|cdef g2 ag|fdec dA ~A2|BGEF GABc:|
[2 a3 b afdf|gefd e2 ag|fdec dA ~A2|BGEF GAB||

